svgs/thin/popsicle.svg

<svg xmlns="http://www.w3.org/2000/svg" viewBox="0 0 320 512"><!--! Font Awesome Pro 6.6.0 by @fontawesome - https://fontawesome.com License - https://fontawesome.com/license (Commercial License) Copyright 2024 Fonticons, Inc. --><path d="M304 160c0-79.5-64.5-144-144-144S16 80.5 16 160l0 176c0 17.7 14.3 32 32 32l104 0 0-200c0-4.4 3.6-8 8-8s8 3.6 8 8l0 200 104 0c17.7 0 32-14.3 32-32l0-176zM152 384L48 384c-26.5 0-48-21.5-48-48L0 160C0 71.6 71.6 0 160 0s160 71.6 160 160l0 176c0 26.5-21.5 48-48 48l-104 0 0 120c0 4.4-3.6 8-8 8s-8-3.6-8-8l0-120z"/></svg>

<svg xmlns="http://www.w3.org/2000/svg" viewBox="0 0 320 512"><!--! Font Awesome Pro 6.4.0 by @fontawesome - https://fontawesome.com License - https://fontawesome.com/license (Commercial License) Copyright 2023 Fonticons, Inc. --><path d="M304 160c0-79.5-64.5-144-144-144S16 80.5 16 160V336c0 17.7 14.3 32 32 32H152V168c0-4.4 3.6-8 8-8s8 3.6 8 8V368H272c17.7 0 32-14.3 32-32V160zM152 384H48c-26.5 0-48-21.5-48-48V160C0 71.6 71.6 0 160 0s160 71.6 160 160V336c0 26.5-21.5 48-48 48H168V504c0 4.4-3.6 8-8 8s-8-3.6-8-8V384z"/></svg>
